X:739
T:New Mown Meadow, The
R:reel
S:J\"orgen Fischer
H:Usually played in Ador (#500), or Edor, #470
Z:id:hn-reel-739
M:C|
K:Ddor
AD~D2 D2EG|AcBG AGEG|AD~D2 EDEG|G2AG EDEG|
AD~D2 D2EG|AcBG AGEG|c2cA B2BA|1 GBAG EDEG:|2 GBAG EGBc||
d2Bd edBd|d2BG AGEG|d2Bd edBA|GBAG EGD2|
d2Bd edBd|d2BG AGEG|c2cA B2BA|1 GBAG EGBc:|2 GBAG EDEG||
